styles/logo.svg

<?xml version="1.0" standalone="no"?>
<!DOCTYPE svg PUBLIC "-//W3C//DTD SVG 20010904//EN"
 "http://www.w3.org/TR/2001/REC-SVG-20010904/DTD/svg10.dtd">
<svg version="1.0" xmlns="http://www.w3.org/2000/svg"
 width="486.000000pt" height="513.000000pt" viewBox="0 0 486.000000 513.000000"
 preserveAspectRatio="xMidYMid meet">
<metadata>
Created by potrace 1.16, written by Peter Selinger 2001-2019
</metadata>
<g transform="translate(0.000000,513.000000) scale(0.100000,-0.100000)"
fill="#000000" stroke="none">
<path d="M2080 4185 l0 -44 -517 -3 c-463 -3 -521 -5 -549 -20 -47 -26 -93
-79 -104 -120 -7 -24 -10 -268 -8 -677 l3 -639 30 -43 c17 -23 48 -52 70 -63
39 -20 55 -21 558 -24 l517 -3 0 -44 0 -45 140 0 140 0 0 -645 0 -645 70 0 70
0 0 645 0 645 140 0 140 0 0 45 0 44 518 3 c497 3 518 4 556 23 21 12 53 40
70 64 l31 43 3 640 c2 422 -1 652 -8 678 -11 42 -54 91 -104 118 -32 18 -196
22 -843 22 l-223 0 0 45 0 45 -350 0 -350 0 0 -45z m700 -80 l0 -35 -350 0
-350 0 0 35 0 35 350 0 350 0 0 -35z m780 -760 l0 -665 -1130 0 c-897 0 -1130
3 -1131 13 -1 6 -1 46 -1 87 0 41 1 335 1 653 l1 577 1130 0 1130 0 0 -665z
m225 0 c0 -163 -1 -170 -20 -170 -19 0 -20 8 -23 160 -1 87 0 165 3 173 3 7
13 12 22 10 16 -3 18 -19 18 -173z m-2627 89 c25 -17 52 -64 52 -89 0 -57 -55
-107 -116 -107 -102 0 -143 141 -56 195 34 21 91 22 120 1z m1622 -849 l0 -35
-350 0 -350 0 0 35 0 35 350 0 350 0 0 -35z"/>
</g>
</svg>

<?xml version="1.0" encoding="utf-8"?>
<svg viewBox="92.406 30.172 276.051 248.594" xmlns="http://www.w3.org/2000/svg" xmlns:bx="https://boxy-svg.com">
  <defs>
    <radialGradient gradientUnits="userSpaceOnUse" cx="2430" cy="2845.971" r="1528.608" id="gradient-2">
      <stop offset="0" style="stop-color: rgba(0, 0, 0, 1)"/>
      <stop offset="1" style="stop-color: rgba(0, 0, 0, 1)"/>
    </radialGradient>
    <radialGradient gradientUnits="userSpaceOnUse" cx="60.453" cy="39.707" r="19.908" id="gradient-0" spreadMethod="reflect" gradientTransform="matrix(1.228784, 0, 0, 1.174647, 57.109894, 31.601633)">
      <stop offset="0" style="stop-color: rgba(196, 174, 169, 0.87)"/>
      <stop offset="1" style="stop-color: rgba(155, 117, 109, 0.87)"/>
    </radialGradient>
    <radialGradient gradientUnits="userSpaceOnUse" cx="59.677" cy="40.063" r="14.265" id="gradient-1" gradientTransform="matrix(1.161873, 0, 0, 1.170292, 58.983555, 30.976648)">
      <stop offset="0" style="stop-color: rgba(228, 52, 13, 0.94)"/>
      <stop offset="1" style="stop-color: rgba(132, 30, 8, 0.94)"/>
    </radialGradient>
    <filter id="drop-shadow-filter-0" x="-500%" y="-500%" width="1000%" height="1000%" bx:preset="drop-shadow 1 3 4 2 0.39 rgba(49,32,32,0.81)">
      <feGaussianBlur in="SourceAlpha" stdDeviation="2"/>
      <feOffset dx="3" dy="4"/>
      <feComponentTransfer result="offsetblur">
        <feFuncA id="spread-ctrl" type="linear" slope="0.78"/>
      </feComponentTransfer>
      <feFlood flood-color="rgba(49,32,32,0.81)"/>
      <feComposite in2="offsetblur" operator="in"/>
      <feMerge>
        <feMergeNode/>
        <feMergeNode in="SourceGraphic"/>
      </feMerge>
    </filter>
  </defs>
  <g transform="matrix(0.090295, 0, 0, -0.089808, 11.014983, 410.059967)" fill="#000000" stroke="none" style="">
    <path d="M 2080 4185 L 2080 4141 L 1563 4138 C 1100 4135 1042 4133 1014 4118 C 967 4092 921 4039 910 3998 C 903 3974 900 3730 902 3321 L 905 2682 L 935 2639 C 952 2616 983 2587 1005 2576 C 1044 2556 1060 2555 1563 2552 L 2080 2549 L 2080 2505 L 2080 2460 L 2220 2460 L 2270.694 2458.759 L 2270.694 1813.759 L 2271.953 1461.941 L 2431.259 1463.182 L 2588.376 1462.004 L 2587.117 1813.822 L 2587.117 2458.822 L 2640 2460 L 2780 2460 L 2780 2505 L 2780 2549 L 3298 2552 C 3795 2555 3816 2556 3854 2575 C 3875 2587 3907 2615 3924 2639 L 3955 2682 L 3958 3322 C 3960 3744 3957 3974 3950 4000 C 3939 4042 3896 4091 3846 4118 C 3814 4136 3650 4140 3003 4140 L 2780 4140 L 2780 4185 L 2780 4230 L 2430 4230 L 2080 4230 L 2080 4185 Z M 2780 4105 L 2780 4070 L 2430 4070 L 2080 4070 L 2080 4105 L 2080 4140 L 2430 4140 L 2780 4140 L 2780 4105 Z M 2780 2585 L 2780 2550 L 2430 2550 L 2080 2550 L 2080 2585 L 2080 2620 L 2430 2620 L 2780 2620 L 2780 2585 Z" style="fill: url(#gradient-2); fill-opacity: 0.87;"/>
  </g>
  <ellipse style="stroke: rgb(0, 0, 0); fill: rgb(255, 255, 255);" cx="129.729" cy="78.111" rx="22.904" ry="22.729"/>
  <ellipse style="stroke: rgb(0, 0, 0); fill: url(#gradient-0); paint-order: fill; fill-opacity: 0.85;" cx="131.393" cy="78.242" rx="24.463" ry="23.185"/>
  <ellipse style="opacity: 0.92; filter: url(#drop-shadow-filter-0); stroke: rgba(231, 27, 27, 0.4); fill: url(#gradient-1);" cx="128.32" cy="77.861" rx="16.574" ry="16.25"/>
</svg>
